src/assets/outline/Slash.svg

<svg width="24" height="24" viewBox="0 0 24 24"  xmlns="http://www.w3.org/2000/svg">
<path d="M12 22.75C6.07 22.75 1.25 17.93 1.25 12C1.25 6.07 6.07 1.25 12 1.25C17.93 1.25 22.75 6.07 22.75 12C22.75 17.93 17.93 22.75 12 22.75ZM12 2.75C6.9 2.75 2.75 6.9 2.75 12C2.75 17.1 6.9 21.25 12 21.25C17.1 21.25 21.25 17.1 21.25 12C21.25 6.9 17.1 2.75 12 2.75Z" />
<path d="M4.89984 19.7504C4.70984 19.7504 4.51984 19.6804 4.36984 19.5304C4.07984 19.2404 4.07984 18.7604 4.36984 18.4704L18.3698 4.47043C18.6598 4.18043 19.1398 4.18043 19.4298 4.47043C19.7198 4.76043 19.7198 5.24043 19.4298 5.53043L5.42984 19.5304C5.27984 19.6804 5.08984 19.7504 4.89984 19.7504Z" />
</svg>

<?xml version="1.0" encoding="UTF-8"?>
<svg width="24" height="24" viewBox="0 0 24 24" xmlns="http://www.w3.org/2000/svg">
 <path d="m12 22.75c-5.93 0-10.75-4.82-10.75-10.75s4.82-10.75 10.75-10.75 10.75 4.82 10.75 10.75-4.82 10.75-10.75 10.75zm0-20c-5.1 0-9.25 4.15-9.25 9.25s4.15 9.25 9.25 9.25 9.25-4.15 9.25-9.25-4.15-9.25-9.25-9.25z"/>
 <path d="m4.8998 19.75c-0.19 0-0.38-0.07-0.53-0.22-0.29-0.29-0.29-0.77 0-1.06l14-14c0.29-0.29 0.77-0.29 1.06 0s0.29 0.77 0 1.06l-14 14c-0.15 0.15-0.34 0.22-0.53 0.22z"/>
</svg>
